X: 62
T: Roddy McCorley
C: Ethna Carbery (1866-1902)
R: march
B: NEFR #62
N: Ethna Carbery was the pseudonym of Anna MacManus, nee Johnston, (1866-1902), an Irish writer and poet.
Z: 2006 John Chambers <jc@trillian.mit.edu>
M: 4/4
L: 1/8
K: D
DE |\
"D"F2 EF A,2 DE-| "Bm"EF2E D2 A,2 | "G"B,2 D2 "A7"D2 C2 | "D"D6 FG |\
"D"A2 A2 A2  FA | "G"B2 B2 "D"A2 FE | "Bm"D2 B,D "Em"G2 F2 | "A7"E6 FG |
"D"A2 A2 A2  FA | "G"B2 B2 "D"A2 FE | "Bm"D2 B,D "Em"G2 F2 | "A7"E6 DE |\
"D"F2 EF A,2 DE-| "Bm"EF2E D2 A,A, | "G"B,2 D2 "A7"D2 C2 | "D"D6 |]


